X: 2
T: Nancy
Z: Dr. Dow
S: https://thesession.org/tunes/3471#setting16509
R: reel
M: 4/4
L: 1/8
K: Dmaj
|:(3ABc|d2D2 F2A2|d2fe d2A2|d2ef gfed|c2e2 A2Bc|d2D2 F2A2|d2fe d2A2|B2g2 fedc|d4 d2:||:fg|a3b a2gf|g3a g2fe|f2d2 gfed|c2e2 A2Bc|d2D2 F2A2|d2fe d2A2|B2g2 fedc|d4 d2:||:(3ABc|dcBA GFED|F2A2 d2A2|dcde gfed|cdec ABcA|dcBA GFED|F2A2 d2A2|B2g2 fedc|d4 d2:||:fg|aAaA a2gf|gAgA g2fe|fdfa gfed|cdec ABcA|dcBA GFED|F2A2 d2A2|B2g2 fedc|d4 d2:|
